!!!AGN: Motet
!!!SCT: Nugent (1986)
!!!voices: 5
!!!COM: Jachet of Mantua
!!!OTL: Ploremus omnes et lacrimemur
**kern	**kern	**kern	**kern	**kern
*part5	*part4	*part3	*part2	*part1
*staff5	*staff4	*staff3	*staff2	*staff1
*I"Bassus	*I"Tenor II	*I"Tenor I	*I"Altus	*I"Superius
*I'B	*I'T. II	*I'T. I	*I'A	*I'S
*clefF4	*clefGv2	*clefGv2	*clefGv2	*clefG2
*k[]	*k[]	*k[]	*k[]	*k[]
*C:	*C:	*C:	*C:	*C:
*M2/1	*M2/1	*M2/1	*M2/1	*M2/1
*met(C|)	*met(C|)	*met(C|)	*met(C|)	*met(C|)
!!section: Prima pars: Ploremus omnes et lacrimemur
!!!OMD: Prima pars: Ploremus omnes et lacrimemur
0E	0r	0r	0r	0r
=1	=1	=1	=1	=1
0G	0r	0E	0r	0r
=2	=2	=2	=2	=2
[0C	0r	0G	0r	0e
=3	=3	=3	=3	=3
0C_	0r	1G	0E	0g
.	.	1G	.	.
=4	=4	=4	=4	=4
0C]	0r	0c	0G	1e
.	.	.	.	1e
=5	=5	=5	=5	=5
0GG	0r	0B	[0G	0d
=6	=6	=6	=6	=6
0C	0r	0c	1G]	0e
.	.	.	[1E	.
=7	=7	=7	=7	=7
1C	0r	1e	1E]	[0g
1C	.	1e	1G	.
=8	=8	=8	=8	=8
0GG	[0B	0d	1G	0g]
.	.	.	1G	.
=9	=9	=9	=9	=9
1r	0B]	1G	1E	0g
1E	.	[1e	1r	.
=10	=10	=10	=10	=10
0G	0B	1e]	0E	0r
.	.	[1g	.	.
=11	=11	=11	=11	=11
1C	1c	2g]	1G	0e
.	.	2f	.	.
1C	1c	1e	1G	.
=12	=12	=12	=12	=12
0GG	[0B	0d	0G	0g
=13	=13	=13	=13	=13
0GG	0B]	0d	1D	[0g
.	.	.	[1G	.
=14	=14	=14	=14	=14
0C	0r	0e	1G]	0g]
.	.	.	1c	.
=15	=15	=15	=15	=15
1D	0r	1d	2A	0f
.	.	.	2B	.
1D	.	1d	[1A	.
=16	=16	=16	=16	=16
0AA	0r	0c	1A]	0e
.	.	.	2r	.
.	.	.	[2A	.
=17	=17	=17	=17	=17
1.AA	0r	[0e	2A]	1.a
.	.	.	2A	.
.	.	.	[1c	.
2AA	.	.	.	2a
=18	=18	=18	=18	=18
1C	0r	0e]	2c]	1g
.	.	.	2c	.
1C	.	.	1c	1e
=19	=19	=19	=19	=19
0D	0r	1.d	1A	0f
.	.	.	2r	.
.	.	2d	[2A	.
=20	=20	=20	=20	=20
1AA	0r	0c	2A]	0e
.	.	.	2A	.
1C	.	.	2G	.
.	.	.	2E	.
=21	=21	=21	=21	=21
0D	1d	0A	1F	1.a
.	1d	.	1F	.
.	.	.	.	2a
=22	=22	=22	=22	=22
1r	1B	1B	1E	1g
[1A	[1c	2A	1r	[1e
.	.	[2e	.	.
=23	=23	=23	=23	=23
2A]	1c]	2e]	1r	2e]
2A	.	2c	.	2f
[1G	[1B	1d	2r	2.g
.	.	.	[2d	.
.	.	.	.	4a
=24	=24	=24	=24	=24
1G]	1B]	2G	2d]	1b
.	.	1g	2d	.
1E	1r	.	[1c	1g
.	.	[2e	.	.
=25	=25	=25	=25	=25
0F	0r	2e]	1c]	2r
.	.	4d	.	1cc
.	.	4c	.	.
.	.	1d	1A	.
.	.	.	.	[2a
=26	=26	=26	=26	=26
0E	0r	[0e	0B	2a]
.	.	.	.	4g#i
.	.	.	.	4f#i
.	.	.	.	1g#i
=27	=27	=27	=27	=27
0AA	1r	0e]	0A	[0a
.	[1c	.	.	.
=28	=28	=28	=28	=28
1.F	1c]	1.f	1.A	1a]
.	[1c	.	.	[1cc
2F	.	2f	2A	.
=29	=29	=29	=29	=29
[0C	1c]	1.e	[0G	2cc]
.	.	.	.	2cc
.	[1c	.	.	[1g
.	.	4d	.	.
.	.	4c	.	.
=30	=30	=30	=30	=30
1C]	1c]	1e	0G]	0g]
1r	1B	1d	.	.
=31	=31	=31	=31	=31
1.F	0A	1.f	1r	1.a
.	.	.	[1c	.
2F	.	2f	.	2a
=32	=32	=32	=32	=32
1C	0r	1e	2c]	1.g
.	.	.	2c	.
1C	.	1e	2G	.
.	.	.	[2A	2e
=33	=33	=33	=33	=33
1.D	0r	1.d	4A]	1.f
.	.	.	4G	.
.	.	.	4F	.
.	.	.	4E	.
.	.	.	2F	.
2GG	.	2B	2G	2d
=34	=34	=34	=34	=34
0GG	0r	2B	0G	1d
.	.	2G	.	.
.	.	[1d	.	2r
.	.	.	.	2d
=35	=35	=35	=35	=35
0r	0r	1d]	1D	0a
.	.	1c	1r	.
=36	=36	=36	=36	=36
1r	0r	1B	2r	1g
.	.	.	2G	.
1D	.	1A	[1d	1f
=37	=37	=37	=37	=37
0A	0r	0r	1d]	0e
.	.	.	1c	.
=38	=38	=38	=38	=38
1G	0r	1r	1B	2r
.	.	.	.	2d
[1F	.	[1A	2A	[1a
.	.	.	[2c	.
=39	=39	=39	=39	=39
1F]	0c	1A]	2c]	1a]
.	.	.	2F	.
2E	.	1e	2G	2g
2C	.	.	[2A	2e
=40	=40	=40	=40	=40
1D	1A	[0d	2A]	1a
.	.	.	2F	.
[1GG	[1B	.	1G	[1g
=41	=41	=41	=41	=41
1GG]	1B]	1d]	1D	1g]
1D	[1A	1d	1r	1f
=42	=42	=42	=42	=42
1AA	1A]	1c	2r	2e
.	.	.	2A	2c
[1C	[1G	2r	[1e	[1cc
.	.	2c	.	.
=43	=43	=43	=43	=43
1C]	1G]	0g	1e]	1cc]
2G	1r	.	1d	1b
2G	.	.	.	.
=44	=44	=44	=44	=44
1A	0r	1f	0c	1a
[1E	.	[1e	.	[1g
=45	=45	=45	=45	=45
0E]	0r	2e]	1B	1g]
.	.	4d	.	.
.	.	4c	.	.
.	.	1B	[1G	1r
=46	=46	=46	=46	=46
0C	0r	0c	1G]	0e
.	.	.	[1A	.
=47	=47	=47	=47	=47
1.D	0r	1.A	1A]	1.f
.	.	.	1F	.
2D	.	2B	.	2f
=48	=48	=48	=48	=48
2.C	1r	1c	[0G	1e
4BB	.	.	.	.
[1GG	1d	1B	.	2r
.	.	.	.	2g
=49	=49	=49	=49	=49
0GG_	1d	2r	0G]	1.b
.	.	2B	.	.
.	1B	[1d	.	.
.	.	.	.	2a
=50	=50	=50	=50	=50
1GG]	0d	2d]	1r	0g
.	.	2c	.	.
1r	.	1B	1G	.
=51	=51	=51	=51	=51
1D	0r	1A	1.d	1f
[1G	.	1G	.	1g
.	.	.	2c	.
=52	=52	=52	=52	=52
2G]	0r	0r	2B	2r
2F	.	.	2A	2d
2.E	.	.	1G	1g
4E	.	.	.	.
=53	=53	=53	=53	=53
2D	0d	1r	2r	1f
2D	.	.	2A	.
[1G	.	2r	[1B	1r
.	.	2d	.	.
=54	=54	=54	=54	=54
2G]	1.e	1.g	2B]	0r
2F	.	.	2A	.
[1E	.	.	[1G	.
.	2d	2f	.	.
=55	=55	=55	=55	=55
2E]	1c	1e	1G]	0r
2C	.	.	.	.
1D	1B	1d	1F	.
=56	=56	=56	=56	=56
0C	0c	0e	1.G	2r
.	.	.	.	2g
.	.	.	.	[1cc
.	.	.	4F	.
.	.	.	4E	.
=57	=57	=57	=57	=57
1r	0A	1.c	1F	2cc]
.	.	.	.	2b
1AA	.	.	1E	[1a
.	.	2d	.	.
=58	=58	=58	=58	=58
[0E	[0B	[0e	1r	2a]
.	.	.	.	2g
.	.	.	2r	1g
.	.	.	2E	.
=59	=59	=59	=59	=59
0E]	0B]	0e]	2.G	1r
.	.	.	4A	.
.	.	.	2B	2r
.	.	.	2G	2e
=60	=60	=60	=60	=60
1D	0r	1.f	1d	[0a
[1A	.	.	1c	.
.	.	[2e	.	.
=61	=61	=61	=61	=61
2A]	0r	4e]	2r	1a]
.	.	4d	.	.
2A	.	2c	2A	.
1E	.	1B	[1e	[1g
=62	=62	=62	=62	=62
1C	0r	2r	1e]	1g]
.	.	2E	.	.
[1D	.	[1A	[1d	[1f
=63	=63	=63	=63	=63
1D]	0r	0A]	1d]	2f]
.	.	.	.	2f
1AA	.	.	[1c	1e
=64	=64	=64	=64	=64
0E	[0e	0G	2c]	0r
.	.	.	2B	.
.	.	.	2B	.
.	.	.	2E	.
=65	=65	=65	=65	=65
1r	0e]	1.c	0A	0r
2r	.	.	.	.
2AA	.	2c	.	.
=66	=66	=66	=66	=66
0E	0e	1.B	0G	0r
.	.	4A	.	.
.	.	4G	.	.
=67	=67	=67	=67	=67
0D	1f	0A	1.d	2r
.	.	.	.	2d
.	1f	.	.	[1a
.	.	.	2d	.
=68	=68	=68	=68	=68
1.A	[0e	0r	1.c	0a]
2A	.	.	4B	.
.	.	.	4A	.
=69	=69	=69	=69	=69
0E	0e]	1r	1.B	0g
.	.	2r	.	.
.	.	2B	2G	.
=70	=70	=70	=70	=70
0C	0r	0e	1.G	0cc
.	.	.	2A	.
=71	=71	=71	=71	=71
0G	0r	0d	2B	0b
.	.	.	2c	.
.	.	.	[1d	.
=72	=72	=72	=72	=72
0F	0r	1.f	2d]	1.a
.	.	.	2c	.
.	.	.	[1c	.
.	.	2e	.	2a
=73	=73	=73	=73	=73
1.G	1r	0d	1c]	1g
.	1g	.	1B	1r
2G	.	.	.	.
=74	=74	=74	=74	=74
1C	1g	1e	[0c	2r
.	.	.	.	2g
2r	1e	1r	.	[1cc
2C	.	.	.	.
=75	=75	=75	=75	=75
1F	0f	0r	1c]	2cc]
.	.	.	.	1a
1D	.	.	2r	.
.	.	.	2A	4g
.	.	.	.	4f
=76	=76	=76	=76	=76
2.C	0e	2r	1c	1.g
.	.	2e	.	.
4D	.	.	.	.
1E	.	1g	2B	.
.	.	.	2G	[2b
=77	=77	=77	=77	=77
1F	0r	2f	1A	4b]
.	.	.	.	4a
.	.	2d	.	1a
1E	.	[1e	1B	.
.	.	.	.	2g#i
=78	=78	=78	=78	=78
1AA	1r	2e]	0A	0a
.	.	4d	.	.
.	.	4c	.	.
1D	1f	1d	.	.
=79	=79	=79	=79	=79
1.F	0f	1c	1A	1r
.	.	1r	[1c	1a
2F	.	.	.	.
=80	=80	=80	=80	=80
[0F	[0f	1A	2c]	1.cc
.	.	.	2B	.
.	.	[1c	[1A	.
.	.	.	.	2b
=81	=81	=81	=81	=81
1F]	1f]	2c]	2A]	1a
.	.	2c	2F	.
1C	1e	2c	2G	2g
.	.	2c	[2A	2e
=82	=82	=82	=82	=82
0D	0d	1.A	4A]	0f
.	.	.	4G	.
.	.	.	4F	.
.	.	.	4E	.
.	.	.	1F	.
.	.	2B	.	.
=83	=83	=83	=83	=83
2C	0r	0c	1G	1e
2C	.	.	.	.
[1F	.	.	1r	1a
=84	=84	=84	=84	=84
2F]	0r	1r	1A	1.cc
2F	.	.	.	.
[1F	.	1A	[1c	.
.	.	.	.	2b
=85	=85	=85	=85	=85
0F]	0r	1.c	2c]	2.a
.	.	.	2B	.
.	.	.	.	4g
.	.	.	2A	1f
.	.	2c	2F	.
=86	=86	=86	=86	=86
1C	1r	2c	2G	1e
.	.	2c	2.A	.
[1D	[1f	[1A	.	[1d
.	.	.	4G	.
.	.	.	4F	.
.	.	.	4E	.
=87	=87	=87	=87	=87
1D]	1f]	1A]	1F	1d]
1GG	1d	1B	1G	1r
=88	=88	=88	=88	=88
0C	0e	0c	0G	0r
=89	=89	=89	=89	=89
0D	0d	1B-X	0F	0r
.	.	[1A	.	.
=90	=90	=90	=90	=90
0AA	0c	0A_	0E	0e
=91	=91	=91	=91	=91
1.D	0r	1A]	2.F	0d
.	.	.	4G	.
.	.	1f	2A	.
2BB-X	.	.	2B-X	.
=92	=92	=92	=92	=92
1C	0r	2e	2G	2c
.	.	1c	1A	2c
1D	.	.	.	[1f
.	.	2B	4G	.
.	.	.	4F	.
=93	=93	=93	=93	=93
[0C	1r	1c	0G	2f]
.	.	.	.	4e
.	.	.	.	4d
.	1g	2r	.	[1e
.	.	2c	.	.
=94	=94	=94	=94	=94
0C]	1g	1c	2r	1e]
.	.	.	2G	.
.	1e	1g	1G	2r
.	.	.	.	2c
=95	=95	=95	=95	=95
2r	0g	0e	0c	1c
2C	.	.	.	.
1C	.	.	.	1cc
=96	=96	=96	=96	=96
1F	0r	1c	2r	2.a
.	.	.	2A	.
.	.	.	.	4g
1D	.	1r	1A	1f
=97	=97	=97	=97	=97
2C	0g	1r	0c	0e
2C	.	.	.	.
1C	.	2r	.	.
.	.	2c	.	.
=98	=98	=98	=98	=98
1.F	1.a	2c	2r	0r
.	.	1f	1c	.
2C	2g	2e	2c	.
=99	=99	=99	=99	=99
1D	1f	1d	1.A	0a
1AA	1e	1c	.	.
.	.	.	2G	.
=100	=100	=100	=100	=100
[0D	0f	1d	2F	1.a
.	.	.	2E	.
.	.	1d	2.D	.
.	.	.	.	2g
.	.	.	4E	.
=101	=101	=101	=101	=101
1D]	0d	[0A	0F	2f
.	.	.	.	2e
1D	.	.	.	1d
=102	=102	=102	=102	=102
0AA	[0e	0A]	[0E	1c
.	.	.	.	2r
.	.	.	.	2a
=103	=103	=103	=103	=103
0r	0e]	2r	1E]	2.cc
.	.	2A	.	.
.	.	.	.	4b
.	.	2.c	1r	2a
.	.	.	.	[2g
.	.	4B	.	.
=104	=104	=104	=104	=104
0r	1r	2A	1D	2g]
.	.	2A	.	2f#i
.	[1B	[1G	2.G	[1g
.	.	.	4F	.
=105	=105	=105	=105	=105
1r	0B_	1G]	2E	0g_
.	.	.	2E	.
1GG	.	1r	1D	.
=106	=106	=106	=106	=106
1.G	1B]	1d	0r	1g]
.	[1B	[1g	.	1r
2F	.	.	.	.
=107	=107	=107	=107	=107
2E	1B]	2g]	1r	2r
2D	.	2f	.	2d
[1C	1c	1e	2r	2.g
.	.	.	2E	.
.	.	.	.	4f
=108	=108	=108	=108	=108
1C]	1c	0r	[0G	2e
.	.	.	.	2e
1GG	[1B	.	.	1d
=109	=109	=109	=109	=109
1.G	0B_	1d	0G]	0r
.	.	[1g	.	.
2F	.	.	.	.
=110	=110	=110	=110	=110
2E	1B]	2g]	0G	1r
2D	.	2f	.	.
1C	1r	2e	.	2r
.	.	4d	.	2e
.	.	4c	.	.
=111	=111	=111	=111	=111
[0GG	1d	1B	1r	1g
.	1d	2r	2r	1g
.	.	2B	2D	.
=112	=112	=112	=112	=112
1GG]	1B	1d	1G	1r
[1C	[1c	[1e	1G	2r
.	.	.	.	2e
=113	=113	=113	=113	=113
1C]	1c]	2e]	2r	1.g
.	.	2e	2E	.
2GG	[1B	2.d	[1G	.
[2G	.	.	.	2g
.	.	4c	.	.
=114	=114	=114	=114	=114
4G]	1B]	2B	2G]	2d
4F	.	.	.	.
2E	.	2G	2G	2e
1D	1r	1A	2F	1f
.	.	.	2F	.
=115	=115	=115	=115	=115
[0C	0c	0r	0G	1e
.	.	.	.	2r
.	.	.	.	[2e
=116	=116	=116	=116	=116
1C]	0c	1r	2r	2e]
.	.	.	1E	2e
[1AA	.	2r	.	[1a
.	.	[2A	2E	.
=117	=117	=117	=117	=117
1AA]	0c	2A]	0A	1a]
.	.	2A	.	.
1AA	.	[1e	.	1a
=118	=118	=118	=118	=118
1E	1B	0e]	1B	1g
2AA	[1A	.	[1c	2r
[2A	.	.	.	[2a
=119	=119	=119	=119	=119
2A]	1A]	1f	2c]	2a]
2D	.	.	2d	2a
1E	1r	1e	1B	1g
=120	=120	=120	=120	=120
1AA	0c	0r	1.A	2e
.	.	.	.	2.f
2r	.	.	.	.
.	.	.	.	4e
[2A	.	.	2G	[2e
=121	=121	=121	=121	=121
2A]	1A	1r	1F	2e]
2A	.	.	.	2d
1G	[1B	2r	1E	2e
.	.	[2e	.	[2g
=122	=122	=122	=122	=122
1E	1B]	2e]	0r	2g]
.	.	2e	.	1e
[1F	[1A	1c	.	.
.	.	.	.	4d
.	.	.	.	4c
=123	=123	=123	=123	=123
1F]	1A]	1A	1r	1d
[1E	[1G	[1B	2r	1e
.	.	.	[2e	.
=124	=124	=124	=124	=124
1E]	1G]	1B]	2e]	0r
.	.	.	2e	.
1AA	1r	1A	1c	.
=125	=125	=125	=125	=125
0D	1d	0F	1.A	0r
.	1d	.	.	.
.	.	.	[2B	.
=126	=126	=126	=126	=126
1E	1B	1.G	2B]	1r
.	.	.	4A	.
.	.	.	4G	.
[1D	[1d	.	[1A	2r
.	.	4F	.	[2a
.	.	4E	.	.
=127	=127	=127	=127	=127
1D]	1d]	1F	2A]	2a]
.	.	.	4G	2a
.	.	.	4F	.
1r	1r	1G	1E	2g
.	.	.	.	2e
=128	=128	=128	=128	=128
2r	0d	1A	1D	0f
1D	.	.	.	.
.	.	2r	1r	.
2D	.	[2A	.	.
=129	=129	=129	=129	=129
1C	1.e	2A]	1r	[0e
.	.	2G	.	.
[1AA	.	1A	2r	.
.	2d	.	[2A	.
=130	=130	=130	=130	=130
1AA]	1c	1E	2A]	0e]
.	.	.	2A	.
1E	1B	1r	1G	.
=131	=131	=131	=131	=131
[0AA	0c	2r	[0E	1r
.	.	1e	.	.
.	.	.	.	[1a
.	.	2e	.	.
=132	=132	=132	=132	=132
1AA]	0A	2c	1E]	1a]
.	.	2A	.	.
1r	.	2.c	1F	1a
.	.	4d	.	.
=133	=133	=133	=133	=133
0r	[0B	0e	[0E	0g
=134	=134	=134	=134	=134
1.E	0B]	1r	1E]	1.g
.	.	2r	2r	.
2E	.	[2e	[2G	4f
.	.	.	.	4e
=135	=135	=135	=135	=135
1C	[0El	2e]	2G]	[0el
.	.	2e	2G	.
[1AA	.	[1c	[1A	.
=136	=136	=136	=136	=136
1AA]	0E_	1c]	1A]	0e_
1GG	.	1B	1B	.
=137	=137	=137	=137	=137
0AA	0E_	0A	0c	0e_
=138	=138	=138	=138	=138
00EEl	00E]	00Gl	00Bl	00e]
==	==	==	==	==
*-	*-	*-	*-	*-
!!!system-decoration: [*]
!!!RDF**kern: i = editorial accidental
!!!RDF**kern: l = terminal long
!!!ENC: Benjamin Ory
!!!END: 2021/1/26
!!!EED: Benjamin Ory
!!!EEV: 2021/05/17
!!!YEC: Copyright 2021 Benjamin Ory, All Rights Reserved
!!!ONB: Translated from MusicXML on 2021/05/17